public/images/home/curl-arrow.svg

<svg width="104" height="244" viewBox="0 0 104 244" fill="none" xmlns="http://www.w3.org/2000/svg">
<path fill-rule="evenodd" clip-rule="evenodd" d="M36.1223 220.896C35.9304 219.684 36.2303 219.156 37.1586 218.674C38.67 217.954 41.3951 218.861 48.0123 222.355C51.4975 224.141 52.6144 224.543 52.0925 223.669C44.6688 212.084 42.1678 206.557 40.4494 198.129C38.0604 186.081 38.9694 172.793 43.2649 158.591L45.6783 150.61L38.5957 145.139C30.9414 139.325 27.5389 135.371 23.9093 128.445C20.2647 121.424 17.4275 109.545 17.2841 101.105C17.2649 96.1402 18.7999 88.3417 20.8041 83.7747L22.6465 79.416L19.0827 76.8267C14.1154 73.2177 10.2462 68.4303 6.18492 60.8545C-1.25929 47.0261 -1.5939 32.2666 5.03414 13.7255C8.66388 3.73831 11.538 -0.448911 13.6982 1.12064C14.5101 1.71047 14.3537 2.8372 12.9943 6.63233C9.19487 17.3161 7.69421 22.333 6.53376 28.9216C3.80687 44.2634 9.73985 60.6203 21.8066 71.0377L25.5839 74.3603L27.4368 72.49C36.0934 63.7584 42.2708 60.2473 51.9354 58.7653C62.8949 57.0783 71.0941 62.3733 71.2008 71.1964C71.2648 74.2912 67.5842 80.0369 63.8447 82.6809C56.7108 87.7254 43.1412 88.3464 31.8589 84.1121L27.7486 82.6079L26.7523 84.7748C23.2739 92.0653 22.5203 99.6853 24.244 110.261C26.1145 121.764 31.4881 131.86 39.6645 139.125C43.4568 142.542 48.2473 145.035 48.7769 143.843C48.9968 143.424 50.9029 140.352 52.9571 137.062C60.748 124.979 72.1493 116.434 82.0573 115.297C87.6422 114.656 91.8322 115.471 96.0093 118.012C105.065 123.604 106.311 134.158 98.7724 142.378C89.7344 152.314 72.4492 156.921 56.6438 153.689C54.122 153.182 51.8954 152.962 51.7005 153.23C50.8757 154.365 47.8845 164.732 46.8654 170.099C43.8633 185.241 45.4761 199.037 51.5933 210.829C53.5489 214.72 61.3628 226.347 62.4911 227.167C62.8144 227.402 62.8391 225.444 62.4252 222.83C61.0131 211.493 61.993 202.303 64.8328 200.897C67.8157 199.511 68.873 202.266 68.4729 210.311C68.3218 213.586 69.0982 221.487 70.2797 228.947C71.4428 235.983 72.1222 242.08 71.8473 242.458C71.5724 242.836 70.6591 243.413 69.8358 243.635C68.4292 244.095 67.4824 243.575 58.4148 236.987C52.9191 233.079 45.7467 228.193 42.4496 226.134C37.1124 222.919 36.3405 222.274 36.1254 220.877L36.1223 220.896ZM65.6428 148.696C76.5444 149.028 88.7216 144.42 94.0436 137.891C97.411 133.82 98.1456 130.885 96.6017 127.787C94.3725 123.361 87.2136 120.714 81.279 122.184C77.6425 123.095 71.62 126.392 67.2157 129.951C63.7114 132.85 56.5932 141.953 55.2306 145.42L54.5342 147.059L57.7076 147.798C59.4859 148.186 63.0443 148.627 65.6359 148.691L65.6428 148.696ZM40.9515 80.0176C46.9667 81.1714 55.113 80.4048 58.9891 78.3541C64.4985 75.4298 66.6774 70.1594 63.8416 66.7851C60.9627 63.369 51.3414 63.8943 43.3222 67.8858C39.4711 69.7864 33.1654 74.371 31.6208 76.3813C31.0309 77.1931 35.7179 79.0322 40.9396 80.0194L40.9515 80.0176Z" fill="#9AB0A6"/>
</svg>

<svg xmlns="http://www.w3.org/2000/svg" width="104" height="244" fill="none" viewBox="0 0 104 244"><path fill="#9ab0a6" fill-rule="evenodd" d="M36.122 220.896c-.192-1.212.108-1.74 1.037-2.222 1.511-.72 4.236.187 10.853 3.681 3.486 1.786 4.602 2.188 4.08 1.314-7.423-11.585-9.924-17.112-11.643-25.54-2.389-12.048-1.48-25.336 2.816-39.538l2.413-7.981-7.082-5.471c-7.655-5.814-11.057-9.768-14.687-16.694-3.644-7.021-6.482-18.9-6.625-27.34-.02-4.965 1.516-12.763 3.52-17.33l1.843-4.359-3.564-2.59c-4.968-3.608-8.837-8.396-12.898-15.971-7.444-13.829-7.779-28.588-1.15-47.13C8.663 3.738 11.537-.449 13.697 1.121c.812.59.656 1.716-.704 5.511-3.8 10.684-5.3 15.701-6.46 22.29C3.807 44.263 9.74 60.62 21.807 71.038l3.777 3.322 1.853-1.87c8.656-8.732 14.834-12.243 24.498-13.725 10.96-1.687 19.16 3.608 19.266 12.431.064 3.095-3.617 8.84-7.356 11.485-7.134 5.044-20.704 5.665-31.986 1.431l-4.11-1.504-.997 2.167c-3.478 7.29-4.232 14.91-2.508 25.486 1.87 11.503 7.244 21.599 15.42 28.864 3.793 3.417 8.583 5.91 9.113 4.718.22-.419 2.126-3.491 4.18-6.781 7.791-12.083 19.192-20.628 29.1-21.765 5.585-.641 9.775.174 13.952 2.715 9.056 5.592 10.302 16.146 2.763 24.366-9.038 9.936-26.323 14.543-42.128 11.311-2.522-.507-4.749-.727-4.943-.459-.825 1.135-3.816 11.502-4.836 16.869-3.002 15.142-1.389 28.938 4.728 40.73 1.956 3.891 9.77 15.518 10.898 16.338.323.235.348-1.723-.066-4.337-1.412-11.337-.432-20.527 2.408-21.933 2.983-1.386 4.04 1.369 3.64 9.414-.151 3.275.625 11.176 1.807 18.636 1.163 7.036 1.842 13.133 1.567 13.511s-1.188.955-2.011 1.177c-1.407.46-2.354-.06-11.421-6.648-5.496-3.908-12.668-8.794-15.965-10.853-5.338-3.215-6.11-3.86-6.325-5.257zm29.52-72.2c10.902.332 23.08-4.276 28.402-10.805 3.367-4.071 4.102-7.006 2.558-10.104-2.23-4.426-9.388-7.073-15.323-5.603-3.636.911-9.659 4.208-14.063 7.767-3.505 2.899-10.623 12.002-11.985 15.469l-.697 1.639 3.174.739c1.778.388 5.336.829 7.928.893zm-24.69-68.678c6.015 1.153 14.161.387 18.037-1.664 5.51-2.924 7.688-8.195 4.853-11.569-2.88-3.416-12.5-2.89-20.52 1.1-3.85 1.901-10.157 6.486-11.701 8.496-.59.812 4.097 2.651 9.319 3.638z" clip-rule="evenodd"/></svg>
